X:1
T:Cumberland Reel
M:6/8
R:Jig
K:D
L:1/8
f2ed2c|d2Bd2B|G2G DFG|F2 G A2 A|B2Gd2B|A2Fd2d|
c2e ABc|d3d2e:| f2f fde| f2 f fde|f2f fgf|e3e2c|
d2dd2c|d2dd2c|d2Be2d|c2B ABc| d2 d cBA|B2cd2A|
d2d cBA|B2cd2f|e2ee2e|e2e efg|a2a gfe|d3d2||
